app/icons/PositionTracking.svg

<svg width="24" height="24" viewBox="0 0 24 24" fill="none" xmlns="http://www.w3.org/2000/svg">
<path d="M15.536 8.464C17.488 10.416 17.488 13.584 15.536 15.536C13.584 17.488 10.416 17.488 8.464 15.536C6.512 13.584 6.512 10.416 8.464 8.464C10.416 6.512 13.584 6.512 15.536 8.464Z" stroke="white" stroke-width="2" stroke-linecap="round" stroke-linejoin="round"/>
<path d="M9 21C7.0779 20.2388 5.39605 18.8592 4.28123 16.9467C3.18563 15.0723 2.82043 12.9886 3.07992 11" stroke="white" stroke-width="2" stroke-linecap="round" stroke-linejoin="round"/>
<path d="M6 5C7.6735 3.74528 9.7703 3 12.0541 3C14.2888 3 16.3462 3.72641 18 4.93396" stroke="white" stroke-width="2" stroke-linecap="round" stroke-linejoin="round"/>
<path d="M15 21C16.9221 20.2388 18.6039 18.8592 19.7188 16.9467C20.8144 15.0723 21.1796 12.9886 20.9201 11" stroke="white" stroke-width="2" stroke-linecap="round" stroke-linejoin="round"/>
</svg>

<svg width="24" height="24" viewBox="0 0 24 24" fill="none" xmlns="http://www.w3.org/2000/svg"><path d="M15.536 8.464a5.002 5.002 0 0 1 0 7.072 5.002 5.002 0 0 1-7.072 0 5.002 5.002 0 0 1 0-7.072 5.002 5.002 0 0 1 7.072 0ZM9 21a9.478 9.478 0 0 1-4.719-4.053A9.332 9.332 0 0 1 3.08 11M6 5a10.05 10.05 0 0 1 6.054-2c2.235 0 4.292.726 5.946 1.934M15 21a9.478 9.478 0 0 0 4.719-4.053A9.332 9.332 0 0 0 20.92 11" stroke="#fff" stroke-width="2" stroke-linecap="round" stroke-linejoin="round"/></svg>
